X:0904
T:Rakes of Kilkenny.
M:9/8 % Aird bars it in 6/8
L:1/8
Q:3/8=120
I: :: :|
Z:Jack Campin * www.campin.me.uk * 2009
K:D
DDD DBG FAF|DDD DBG Acd|DDD DBG AFA|GEG =cA/B/c/A/ GEc:|
dcd DdB AGF|dcd dfa gfe|fdf edc dcB|AGF =cA/B/c/A/ GFE:|
<end>
<start>
